assets/img/code.svg

<svg enable-background="new 0 0 522.468 522.469" height="522.469" viewBox="0 0 522.468 522.469" width="522.468" xmlns="http://www.w3.org/2000/svg"><path d="m325.762 70.513-17.706-4.854c-2.279-.76-4.524-.521-6.707.715-2.19 1.237-3.669 3.094-4.429 5.568l-106.494 368.588c-.76 2.475-.522 4.809.715 6.995 1.237 2.19 3.09 3.665 5.568 4.425l17.701 4.856c2.284.766 4.521.526 6.71-.712 2.19-1.243 3.666-3.094 4.425-5.564l106.497-368.594c.759-2.474.523-4.808-.716-6.999-1.238-2.19-3.089-3.665-5.564-4.424z"/><path d="m166.167 142.465c0-2.474-.953-4.665-2.856-6.567l-14.277-14.276c-1.903-1.903-4.093-2.857-6.567-2.857s-4.665.955-6.567 2.857l-133.044 133.044c-1.906 1.903-2.856 4.093-2.856 6.567s.953 4.664 2.856 6.566l133.043 133.044c1.902 1.906 4.089 2.854 6.567 2.854s4.665-.951 6.567-2.854l14.277-14.268c1.903-1.902 2.856-4.093 2.856-6.57 0-2.471-.953-4.661-2.856-6.563l-112.203-112.209 112.204-112.201c1.906-1.902 2.856-4.093 2.856-6.567z"/><path d="m519.614 254.663-133.047-133.044c-1.902-1.902-4.093-2.857-6.563-2.857-2.478 0-4.661.955-6.57 2.857l-14.271 14.275c-1.902 1.903-2.851 4.09-2.851 6.567s.948 4.665 2.851 6.567l112.206 112.204-112.206 112.21c-1.902 1.902-2.851 4.093-2.851 6.563 0 2.478.948 4.668 2.851 6.57l14.271 14.268c1.909 1.906 4.093 2.854 6.57 2.854 2.471 0 4.661-.951 6.563-2.854l133.047-133.043c1.903-1.902 2.854-4.096 2.854-6.57-0-2.475-.951-4.665-2.854-6.567z"/></svg>

<?xml version="1.0" encoding="iso-8859-1"?>
<!-- Generator: Adobe Illustrator 16.0.0, SVG Export Plug-In . SVG Version: 6.00 Build 0)  -->
<!DOCTYPE svg PUBLIC "-//W3C//DTD SVG 1.1//EN" "http://www.w3.org/Graphics/SVG/1.1/DTD/svg11.dtd">
<svg version="1.1" id="Capa_1" xmlns="http://www.w3.org/2000/svg" xmlns:xlink="http://www.w3.org/1999/xlink" x="0px" y="0px"
	 width="522.468px" height="522.469px" viewBox="0 0 522.468 522.469" style="enable-background:new 0 0 522.468 522.469;"
	 xml:space="preserve">
<g>
	<g>
		<path d="M325.762,70.513l-17.706-4.854c-2.279-0.76-4.524-0.521-6.707,0.715c-2.19,1.237-3.669,3.094-4.429,5.568L190.426,440.53
			c-0.76,2.475-0.522,4.809,0.715,6.995c1.237,2.19,3.09,3.665,5.568,4.425l17.701,4.856c2.284,0.766,4.521,0.526,6.71-0.712
			c2.19-1.243,3.666-3.094,4.425-5.564L332.042,81.936c0.759-2.474,0.523-4.808-0.716-6.999
			C330.088,72.747,328.237,71.272,325.762,70.513z"/>
		<path d="M166.167,142.465c0-2.474-0.953-4.665-2.856-6.567l-14.277-14.276c-1.903-1.903-4.093-2.857-6.567-2.857
			s-4.665,0.955-6.567,2.857L2.856,254.666C0.95,256.569,0,258.759,0,261.233c0,2.474,0.953,4.664,2.856,6.566l133.043,133.044
			c1.902,1.906,4.089,2.854,6.567,2.854s4.665-0.951,6.567-2.854l14.277-14.268c1.903-1.902,2.856-4.093,2.856-6.57
			c0-2.471-0.953-4.661-2.856-6.563L51.107,261.233l112.204-112.201C165.217,147.13,166.167,144.939,166.167,142.465z"/>
		<path d="M519.614,254.663L386.567,121.619c-1.902-1.902-4.093-2.857-6.563-2.857c-2.478,0-4.661,0.955-6.57,2.857l-14.271,14.275
			c-1.902,1.903-2.851,4.09-2.851,6.567s0.948,4.665,2.851,6.567l112.206,112.204L359.163,373.442
			c-1.902,1.902-2.851,4.093-2.851,6.563c0,2.478,0.948,4.668,2.851,6.57l14.271,14.268c1.909,1.906,4.093,2.854,6.57,2.854
			c2.471,0,4.661-0.951,6.563-2.854L519.614,267.8c1.903-1.902,2.854-4.096,2.854-6.57
			C522.468,258.755,521.517,256.565,519.614,254.663z"/>
	</g>
</g>
<g>
</g>
<g>
</g>
<g>
</g>
<g>
</g>
<g>
</g>
<g>
</g>
<g>
</g>
<g>
</g>
<g>
</g>
<g>
</g>
<g>
</g>
<g>
</g>
<g>
</g>
<g>
</g>
<g>
</g>
</svg>
